packages/ffe-icons/icons/open/300/md/door_sensor.svg

<svg xmlns="http://www.w3.org/2000/svg" height="24" viewBox="0 -960 960 960" width="24"><path d="M360-360V-760-200v-160Zm-59.999 29.999H360v117.692q0 5.385 3.462 8.847 3.462 3.462 8.847 3.462h215.382q5.385 0 8.847-3.462 3.462-3.462 3.462-8.847v-535.382q0-5.385-3.462-8.847-3.462-3.462-8.847-3.462H372.309q-5.385 0-8.847 3.462-3.462 3.462-3.462 8.847v357.692h-59.999v-357.692q0-29.827 21.241-51.067 21.24-21.241 51.067-21.241h215.382q29.827 0 51.067 21.241 21.241 21.24 21.241 51.067v535.382q0 29.827-21.241 51.067-21.24 21.241-51.067 21.241H372.309q-29.827 0-51.067-21.241-21.241-21.24-21.241-51.067v-117.692ZM480-564.616q14.692 0 25.038-10.346T515.384-600q0-14.692-10.346-25.038T480-635.384q-14.692 0-25.038 10.346T444.616-600q0 14.692 10.346 25.038T480-564.616Zm309.986-45.385q-12.756 0-21.371-8.624Q760-627.25 760-640v-160q0-12.75 8.629-21.375 8.628-8.624 21.384-8.624 12.755 0 21.37 8.624 8.616 8.625 8.616 21.375v160q0 12.75-8.629 21.375-8.629 8.624-21.384 8.624Zm-572.292 280q-12.75 0-21.375-8.628-8.625-8.629-8.625-21.384 0-12.756 8.625-21.371 8.625-8.615 21.375-8.615h267.691q12.75 0 21.374 8.628 8.625 8.629 8.625 21.384 0 12.756-8.625 21.371-8.624 8.615-21.374 8.615H217.694Z"/></svg>

<svg xmlns="http://www.w3.org/2000/svg" height="24" viewBox="0 -960 960 960" width="24"><path d="M360-360v-400 560-160Zm-60 30h60v117.69q0 5.39 3.46 8.85t8.85 3.46h215.38q5.39 0 8.85-3.46t3.46-8.85v-535.38q0-5.39-3.46-8.85t-8.85-3.46H372.31q-5.39 0-8.85 3.46t-3.46 8.85V-390h-60v-357.69q0-29.83 21.24-51.07Q342.48-820 372.31-820h215.38q29.83 0 51.07 21.24Q660-777.52 660-747.69v535.38q0 29.83-21.24 51.07Q617.52-140 587.69-140H372.31q-29.83 0-51.07-21.24Q300-182.48 300-212.31V-330Zm180-234.62q14.69 0 25.04-10.34 10.34-10.35 10.34-25.04t-10.34-25.04q-10.35-10.34-25.04-10.34t-25.04 10.34q-10.34 10.35-10.34 25.04t10.34 25.04q10.35 10.34 25.04 10.34ZM789.99-610q-12.76 0-21.37-8.63Q760-627.25 760-640v-160q0-12.75 8.63-21.37 8.63-8.63 21.38-8.63 12.76 0 21.37 8.63Q820-812.75 820-800v160q0 12.75-8.63 21.37-8.63 8.63-21.38 8.63Zm-572.3 280q-12.75 0-21.37-8.63-8.63-8.63-8.63-21.38 0-12.76 8.63-21.37 8.62-8.62 21.37-8.62h267.7q12.74 0 21.37 8.63 8.62 8.63 8.62 21.38 0 12.76-8.62 21.37-8.63 8.62-21.37 8.62h-267.7Z"/></svg>
